svgs/sharp-regular/films.svg

<svg xmlns="http://www.w3.org/2000/svg" viewBox="0 0 576 512"><!--! Font Awesome Pro 6.6.0 by @fontawesome - https://fontawesome.com License - https://fontawesome.com/license (Commercial License) Copyright 2024 Fonticons, Inc. --><path d="M256 264l0-32 160 0 0 32 0 72-160 0 0-72zm0-80l0-32 0-72 160 0 0 72 0 32-160 0zM440 32l-24 0L256 32l-24 0-24 0-64 0L96 32l0 48 0 48 0 24 0 24 0 64 0 24 0 24 0 48 0 48 48 0 64 0 24 0 24 0 160 0 24 0 24 0 64 0 48 0 0-48 0-48 0-24 0-24 0-64 0-24 0-24 0-48 0-48-48 0-64 0-24 0zM144 80l64 0 0 48-64 0 0-48zm0 96l64 0 0 32 0 32-64 0 0-64zm0 112l64 0 0 48-64 0 0-48zm384 48l-64 0 0-48 64 0 0 48zm0-96l-64 0 0-32 0-32 64 0 0 64zm0-112l-64 0 0-48 64 0 0 48zM48 120l0-24L0 96l0 24L0 456l0 24 24 0 432 0 24 0 0-48-24 0L48 432l0-312z"/></svg>

<svg xmlns="http://www.w3.org/2000/svg" viewBox="0 0 576 512"><!--! Font Awesome Pro 6.4.0 by @fontawesome - https://fontawesome.com License - https://fontawesome.com/license (Commercial License) Copyright 2023 Fonticons, Inc. --><path d="M256 264V232H416v32 72H256V264zm0-80V152 80H416v72 32H256zM440 32H416 256 232 208 144 96V80v48 24 24 64 24 24 48 48h48 64 24 24H416h24 24 64 48V336 288 264 240 176 152 128 80 32H528 464 440zM144 80h64v48H144V80zm0 96h64v32 32H144V176zm0 112h64v48H144V288zm384 48H464V288h64v48zm0-96H464V208 176h64v64zm0-112H464V80h64v48zM48 120V96H0v24V456v24H24 456h24V432H456 48V120z"/></svg>
